src/pages/datadetail/img/location.svg

<?xml version="1.0" encoding="UTF-8" standalone="no"?>
<svg
   xmlns:dc="http://purl.org/dc/elements/1.1/"
   xmlns:cc="http://creativecommons.org/ns#"
   xmlns:rdf="http://www.w3.org/1999/02/22-rdf-syntax-ns#"
   xmlns:svg="http://www.w3.org/2000/svg"
   xmlns="http://www.w3.org/2000/svg"
   xmlns:sodipodi="http://sodipodi.sourceforge.net/DTD/sodipodi-0.dtd"
   xmlns:inkscape="http://www.inkscape.org/namespaces/inkscape"
   viewBox="0 0 17.984167 21.32"
   class="icon-location-pin"
   version="1.1"
   id="svg8"
   sodipodi:docname="location.svg"
   inkscape:version="0.92.3 (2405546, 2018-03-11)"
   width="17.984167"
   height="21.32">
  <metadata
     id="metadata14">
    <rdf:RDF>
      <cc:Work
         rdf:about="">
        <dc:format>image/svg+xml</dc:format>
        <dc:type
           rdf:resource="http://purl.org/dc/dcmitype/StillImage" />
        <dc:title />
      </cc:Work>
    </rdf:RDF>
  </metadata>
  <defs
     id="defs12" />
  <sodipodi:namedview
     pagecolor="#ffffff"
     bordercolor="#666666"
     borderopacity="1"
     objecttolerance="10"
     gridtolerance="10"
     guidetolerance="10"
     inkscape:pageopacity="0"
     inkscape:pageshadow="2"
     inkscape:window-width="1859"
     inkscape:window-height="1025"
     id="namedview10"
     showgrid="false"
     inkscape:zoom="27.812867"
     inkscape:cx="-0.32168083"
     inkscape:cy="12.228117"
     inkscape:window-x="61"
     inkscape:window-y="27"
     inkscape:window-maximized="1"
     inkscape:current-layer="g6" />
  <g
     id="g6"
     transform="translate(-3.0079161,-1)">
    <path
       style="fill:#102a43;fill-opacity:1"
       d="M 8.9921875 0 A 9 9 0 0 0 2.6328125 15.359375 L 8.2929688 21.019531 A 1 1 0 0 0 8.9921875 21.310547 L 8.9921875 21.320312 A 1 1 0 0 0 9.7011719 21.019531 L 15.351562 15.359375 A 9 9 0 0 0 8.9921875 0 z M 8.9921875 6 A 3 3 0 0 1 8.9921875 12 A 3 3 0 0 1 8.9921875 6 z "
       transform="translate(3.0079161,1)"
       id="path2" />
  </g>
</svg>

<svg xmlns="http://www.w3.org/2000/svg" class="icon-location-pin" width="17.984" height="21.32"><path style="fill:#102a43;fill-opacity:1" d="M8.992 0a9 9 0 0 0-6.36 15.36l5.661 5.66a1 1 0 0 0 .7.29v.01a1 1 0 0 0 .708-.3l5.65-5.66A9 9 0 0 0 8.993 0zm0 6a3 3 0 0 1 0 6 3 3 0 0 1 0-6z"/></svg>
